logos/mdn.svg

<?xml version="1.0" encoding="UTF-8"?>
<svg width="512px" height="148px" viewBox="0 0 512 148" version="1.1" xmlns="http://www.w3.org/2000/svg" preserveAspectRatio="xMidYMid">
    <title>MDN</title>
    <g>
        <path d="M279.156137,104.024492 L254.788756,104.024492 L254.788756,96.1870303 L260.203729,96.1870303 L260.203729,73.6721403 C260.203729,68.399666 259.206234,64.6946841 257.211244,62.4146952 C255.216254,60.1347064 252.508767,59.1372112 249.088784,59.1372112 C244.528806,59.1372112 241.108823,60.7047036 238.828834,63.9821876 C236.548845,67.2596716 235.408851,70.5371556 235.266351,73.8146396 L235.266351,96.044531 L243.816309,96.044531 L243.816309,103.881993 L219.448928,103.881993 L219.448928,96.044531 L224.863902,96.044531 L224.863902,73.6721403 C224.863902,68.2571667 223.866407,64.5521848 221.871417,62.4146952 C219.876426,60.2772057 217.16894,59.1372112 213.891456,59.1372112 C209.331478,59.1372112 206.053994,60.7047036 203.631506,63.8396883 C201.351517,66.974673 200.211522,70.252157 200.069023,73.6721403 L200.069023,96.1870303 L209.901475,96.1870303 L209.901475,104.024492 L181.116616,104.024492 L181.116616,96.1870303 L189.666574,96.1870303 L189.666574,60.1347064 L180.974116,60.1347064 L180.974116,52.1547453 L200.069023,52.1547453 L200.069023,61.2747008 C201.779015,58.2822154 203.916504,55.8597272 206.76649,53.864737 C209.616476,52.012246 213.03646,51.0147509 217.16894,51.0147509 C221.301419,51.0147509 224.721403,52.012246 227.856387,54.0072363 C230.991372,56.0022266 233.128862,58.9947119 234.268856,63.1271918 C235.836348,59.5647092 238.116337,56.7147231 241.251322,54.4347342 C244.386307,52.1547453 248.091289,51.0147509 252.508767,51.0147509 C257.496243,51.0147509 261.771222,52.5822433 265.191205,55.7172279 C268.611188,58.8522126 270.463679,63.697189 270.463679,70.252157 L270.463679,96.1870303 L279.156137,96.1870303 L279.156137,104.024492 L279.156137,104.024492 Z M339.718341,104.024492 L320.908433,104.024492 L320.908433,93.7645422 C319.198441,96.8995269 316.918453,99.6070136 313.925967,101.744503 C310.933482,104.024492 307.086001,105.164487 302.098525,105.164487 C295.258558,105.164487 289.701085,102.884498 285.568606,98.1820206 C281.436126,93.6220429 279.441136,87.2095742 279.441136,79.2296131 C279.441136,72.1046479 281.293626,65.5496799 285.141108,59.7072085 C288.84609,53.864737 294.97356,50.8722516 303.381019,50.8722516 C311.788478,50.8722516 317.34595,54.0072363 320.908433,60.1347064 L320.908433,32.0623434 L308.653493,32.0623434 L308.653493,24.0823824 L331.168383,24.0823824 L331.168383,96.1870303 L339.718341,96.1870303 L339.718341,104.024492 L339.718341,104.024492 Z M320.765934,80.084609 L320.765934,73.8146396 C320.623434,69.5396605 319.055942,65.9771778 316.205956,63.4121904 C313.35597,60.8472029 309.935987,59.4222099 305.946006,59.4222099 C300.816031,59.4222099 296.96855,61.2747008 294.261063,64.9796827 C291.553576,68.6846646 290.271083,73.2446424 290.271083,78.6596159 C290.271083,84.5020874 291.696076,89.0620651 294.546062,92.1970498 C297.396048,95.3320345 300.95853,96.8995269 305.09101,96.8995269 C309.650988,96.8995269 313.35597,95.0470359 316.205956,91.4845533 C319.198441,87.7795714 320.623434,83.9320902 320.765934,80.084609 L320.765934,80.084609 Z M408.403006,104.024492 L380.90064,104.024492 L380.90064,96.1870303 L389.450598,96.1870303 L389.450598,73.6721403 C389.450598,68.399666 388.453103,64.6946841 386.315614,62.4146952 C384.320623,60.1347064 381.470637,59.1372112 378.193153,59.1372112 C373.775675,59.1372112 370.213192,60.5622043 367.648205,63.4121904 C365.083217,66.2621765 363.658224,69.6821598 363.515725,73.3871417 L363.515725,96.044531 L372.065683,96.044531 L372.065683,103.881993 L344.563318,103.881993 L344.563318,96.044531 L353.113276,96.044531 L353.113276,60.1347064 L344.278319,60.1347064 L344.278319,52.1547453 L363.658224,52.1547453 L363.658224,60.9897022 C367.363206,54.4347342 373.348177,51.1572502 381.755636,51.1572502 C386.885611,51.1572502 391.303089,52.7247426 394.865572,55.8597272 C398.428055,58.9947119 400.138046,63.8396883 400.138046,70.3946563 L400.138046,96.3295296 L408.688004,96.3295296 L408.688004,104.024492 L408.403006,104.024492 L408.403006,104.024492 Z" fill="#000000"></path>
        <path d="M57.4272196,0 L16.6724186,131.241859 L0,131.241859 L40.6123017,0 L57.4272196,0 Z M72.2471472,0 L72.2471472,131.241859 L57.4272196,131.241859 L57.4272196,0 L72.2471472,0 Z M129.674367,0 L89.0620651,131.241859 L72.3896465,131.241859 L113.001948,0 L129.674367,0 Z M144.494294,0 L144.494294,131.241859 L129.674367,131.241859 L129.674367,0 L144.494294,0 Z" fill="#0069C2"></path>
        <polygon fill="#0069C2" points="416.525466 135.08934 512 135.08934 512 147.629279 416.525466 147.629279"></polygon>
    </g>
</svg>

<svg preserveAspectRatio="xMidYMid" viewBox="0 0 512 148" xmlns="http://www.w3.org/2000/svg">
  <path d="M279.156 104.024H254.79v-7.837h5.415V73.672c0-5.272-.998-8.977-2.993-11.257-1.995-2.28-4.702-3.278-8.122-3.278-4.56 0-7.98 1.568-10.26 4.845-2.28 3.278-3.42 6.555-3.563 9.833v22.23h8.55v7.837H219.45v-7.837h5.415V73.672c0-5.415-.998-9.12-2.993-11.257-1.995-2.138-4.702-3.278-7.98-3.278-4.56 0-7.837 1.568-10.26 4.703-2.28 3.135-3.42 6.412-3.562 9.832v22.515h9.832v7.837h-28.784v-7.837h8.55V60.135h-8.693v-7.98h19.095v9.12c1.71-2.993 3.848-5.415 6.697-7.41 2.85-1.853 6.27-2.85 10.403-2.85 4.132 0 7.552.997 10.687 2.992s5.273 4.988 6.413 9.12c1.567-3.562 3.847-6.412 6.982-8.692 3.135-2.28 6.84-3.42 11.258-3.42 4.987 0 9.262 1.567 12.682 4.702s5.273 7.98 5.273 14.535v25.935h8.692v7.837Zm60.562 0h-18.81v-10.26c-1.71 3.136-3.99 5.843-6.982 7.98-2.993 2.28-6.84 3.42-11.827 3.42-6.84 0-12.398-2.28-16.53-6.982-4.133-4.56-6.128-10.972-6.128-18.952 0-7.125 1.853-13.68 5.7-19.523 3.705-5.842 9.833-8.835 18.24-8.835 8.407 0 13.965 3.135 17.527 9.263V32.062h-12.255v-7.98h22.515v72.105h8.55v7.837Zm-18.952-23.94v-6.27c-.143-4.274-1.71-7.837-4.56-10.402-2.85-2.565-6.27-3.99-10.26-3.99-5.13 0-8.977 1.853-11.685 5.558-2.707 3.705-3.99 8.265-3.99 13.68 0 5.842 1.425 10.402 4.275 13.537 2.85 3.135 6.413 4.703 10.545 4.703 4.56 0 8.265-1.853 11.115-5.415 2.992-3.705 4.417-7.553 4.56-11.4Zm87.637 23.94h-27.502v-7.837h8.55V73.672c0-5.272-.998-8.977-3.135-11.257-1.995-2.28-4.845-3.278-8.123-3.278-4.417 0-7.98 1.425-10.545 4.275-2.565 2.85-3.99 6.27-4.132 9.975v22.658h8.55v7.837h-27.503v-7.837h8.55v-35.91h-8.835v-7.98h19.38v8.835c3.705-6.555 9.69-9.833 18.098-9.833 5.13 0 9.547 1.568 13.11 4.703 3.562 3.135 5.272 7.98 5.272 14.535V96.33h8.55v7.694h-.285Z"/>
  <path fill="#0069C2" d="M57.427 0 16.672 131.242H0L40.612 0h16.815Zm14.82 0v131.242h-14.82V0h14.82Zm57.427 0L89.062 131.242H72.39L113.002 0h16.672Zm14.82 0v131.242h-14.82V0h14.82Z"/>
  <path fill="#0069C2" d="M416.525 135.09H512v12.54h-95.475z"/>
</svg>
